Adwaita++-Dark/mimetypes/16/authors.svg

<svg height="16" width="16" xmlns="http://www.w3.org/2000/svg">
  <g fill="#e6ddff" transform="translate(-993 27)">
    <path d="m6.0664062 0c-.4584999 0-.8936618.08512437-1.2949218.25585938-.39866.16293199-.753075.4015405-1.046875.7109375l-.0019532.00390624h-.0019531c-.28599.31113198-.5080625.68471098-.6640625 1.10937498-.16043.444469-.240065.9142138-.234375 1.3867188 0 .502663.075775.9737745.234375 1.3984375.156.417731.3780725.7854391.6640625 1.0957031l.0019531.0019531.0019532.0019532c.29293.3085309.6440856.5508381 1.0410156.7207031l.0039062.0019531.0019532.0019531c.4004.162932.8352987.2441406 1.2929687.2441407.4576 0 .8905156-.0812087 1.2910157-.2441407v-.0019531c.8800999-.37605 1.3164843-1.0822356 1.7089843-1.8222656.1594-.424663.2363281-.8940415.2363281-1.3984375h.0097657c0-.496597-.075275-.9609686-.234375-1.3847657-.1471-.4131049-.3783344-.7909811-.6777344-1.11132808-.2888-.311364-.6413562-.55591475-1.0351563-.71484374-.4104999-.17203701-.8518748-.25920838-1.296875-.25585938zm.0253907 8.6875c-2.49686 0-3.8373244.23298-4.8339844.984375-.49833.376131-.82734188.88616-1.01367188 1.482422-.18549999.596263-.24327062 1.051622-.24414062 1.84375l.8671875.001953h5.7597656c.025684-.242233.0664872-.466715.1425781-.710938.1336001-.427519.3692626-.792813.7265626-1.0625.7146-.538748 1.6764964-.705078 3.4667972-.705078.247268 0 .442092.012655.658203.019532-.03981-.071598-.093616-.133211-.138672-.201172-.227624.068009-.46419.111328-.714844.111328-.3281 0-.640634-.057006-.9277342-.173828v-.001953-.001953c-.2846001-.121794-.5360938-.2944095-.7460938-.5156255v-.0019531-.0019532c-.2051-.222459-.3646625-.4856432-.4765625-.7851562-.0152274-.0407783-.0201036-.0869897-.0332031-.1289062-.6819901-.0980181-1.4678421-.1523438-2.4921875-.1523438z" transform="translate(993 -27)"/>
    <path d="m1004.0976-21.92215c-.3288 0-.6407.0609-.9285.183312-.2858.116822-.5393.287706-.7499.509543v.0025.0012c-.2051.223081-.3642.490902-.4761.795386-.115.318684-.1718.655447-.1677.994233 0 .360409.054.697205.1677 1.001689.1119.299513.271.564227.4761.786686v.0012.0012c.21.221216.4616.395207.7462.517v.0012.0012c.2871.116822.5991.174612.9272.174612s.6388-.05779.926-.174612v-.0012c.631-.269628.9433-.776815 1.2247-1.307416.1143-.304483.169-.640658.169-1.00231h.01c0-.35606-.054-.689128-.1678-.99299-.1055-.296197-.2707-.567562-.4854-.79725-.207-.223248-.4608-.398078-.7431-.51203-.2944-.12335-.6106-.185713-.9296-.183312zm4.3498 9.320929h-.6214-7.4562l-.62129-.0012c.0006-.567955.042-.894809.17517-1.322329.13362-.42752.36912-.793522.72632-1.063207.7146-.53875 1.6753-.704663 3.4656-.704663s2.7193.165913 3.4333.705284c.3567.269064.5921.636309.7245 1.063828.133.427521.174.753753.174 1.32233z"/>
  </g>
</svg>

<svg xmlns="http://www.w3.org/2000/svg" width="16" height="16" version="1.1">
 <g color="#000" transform="translate(-993 27)">
  <path style="fill:#E6DDFF" d="M 6.0664062 0 C 5.6079063 0 5.1727444 0.08512437 4.7714844 0.25585938 C 4.3728244 0.41879137 4.0184094 0.65739988 3.7246094 0.96679688 L 3.7226562 0.97070312 L 3.7207031 0.97070312 C 3.4347131 1.2818351 3.2126406 1.6554141 3.0566406 2.0800781 C 2.8962106 2.5245471 2.8165756 2.9942919 2.8222656 3.4667969 C 2.8222656 3.9694599 2.8980406 4.4405714 3.0566406 4.8652344 C 3.2126406 5.2829654 3.4347131 5.6506735 3.7207031 5.9609375 L 3.7226562 5.9628906 L 3.7246094 5.9648438 C 4.0175394 6.2733747 4.368695 6.5156819 4.765625 6.6855469 L 4.7695312 6.6875 L 4.7714844 6.6894531 C 5.1718844 6.8523851 5.6067831 6.9335937 6.0644531 6.9335938 C 6.5220531 6.9335938 6.9549687 6.8523851 7.3554688 6.6894531 L 7.3554688 6.6875 C 8.2355687 6.31145 8.6719531 5.6052644 9.0644531 4.8652344 C 9.2238531 4.4405714 9.3007812 3.9711929 9.3007812 3.4667969 L 9.3105469 3.4667969 C 9.3105469 2.9701999 9.2352719 2.5058283 9.0761719 2.0820312 C 8.9290719 1.6689263 8.6978375 1.2910501 8.3984375 0.97070312 C 8.1096375 0.65933912 7.7570813 0.41478837 7.3632812 0.25585938 C 6.9527813 0.08382237 6.5114064 -0.003349 6.0664062 0 z M 6.0917969 8.6875 C 3.5949369 8.6875 2.2544725 8.92048 1.2578125 9.671875 C 0.7594825 10.048006 0.43047062 10.558035 0.24414062 11.154297 C 0.05864063 11.75056 0.00087 12.205919 0 12.998047 L 0.8671875 13 L 6.6269531 13 C 6.6526371 12.757767 6.6934403 12.533285 6.7695312 12.289062 C 6.9031313 11.861543 7.1387938 11.496249 7.4960938 11.226562 C 8.2106938 10.687814 9.1725902 10.521484 10.962891 10.521484 C 11.210159 10.521484 11.404983 10.534139 11.621094 10.541016 C 11.581284 10.469418 11.527478 10.407805 11.482422 10.339844 C 11.254798 10.407853 11.018232 10.451172 10.767578 10.451172 C 10.439478 10.451172 10.126944 10.394166 9.8398438 10.277344 L 9.8398438 10.275391 L 9.8398438 10.273438 C 9.5552437 10.151644 9.30375 9.9790285 9.09375 9.7578125 L 9.09375 9.7558594 L 9.09375 9.7539062 C 8.88865 9.5314472 8.7290875 9.268263 8.6171875 8.96875 C 8.6019601 8.9279717 8.5970839 8.8817603 8.5839844 8.8398438 C 7.9019943 8.7418257 7.1161423 8.6875 6.0917969 8.6875 z" transform="translate(993,-27)"/>
  <path style="fill:#E6DDFF" d="m 1004.0976,-21.92215 c -0.3288,0 -0.6407,0.0609 -0.9285,0.183312 -0.2858,0.116822 -0.5393,0.287706 -0.7499,0.509543 v 0.0025 0.0012 c -0.2051,0.223081 -0.3642,0.490902 -0.4761,0.795386 -0.115,0.318684 -0.1718,0.655447 -0.1677,0.994233 0,0.360409 0.054,0.697205 0.1677,1.001689 0.1119,0.299513 0.271,0.564227 0.4761,0.786686 v 0.0012 0.0012 c 0.21,0.221216 0.4616,0.395207 0.7462,0.517 v 0.0012 0.0012 c 0.2871,0.116822 0.5991,0.174612 0.9272,0.174612 0.3281,0 0.6388,-0.05779 0.926,-0.174612 v -0.0012 c 0.631,-0.269628 0.9433,-0.776815 1.2247,-1.307416 0.1143,-0.304483 0.169,-0.640658 0.169,-1.00231 h 0.01 c 0,-0.35606 -0.054,-0.689128 -0.1678,-0.99299 -0.1055,-0.296197 -0.2707,-0.567562 -0.4854,-0.79725 -0.207,-0.223248 -0.4608,-0.398078 -0.7431,-0.51203 -0.2944,-0.12335 -0.6106,-0.185713 -0.9296,-0.183312 z m 4.3498,9.320929 h -0.6214 -7.4562 l -0.62129,-0.0012 c 6e-4,-0.567955 0.042,-0.894809 0.17517,-1.322329 0.13362,-0.42752 0.36912,-0.793522 0.72632,-1.063207 0.7146,-0.53875 1.6753,-0.704663 3.4656,-0.704663 1.7903,0 2.7193,0.165913 3.4333,0.705284 0.3567,0.269064 0.5921,0.636309 0.7245,1.063828 0.133,0.427521 0.174,0.753753 0.174,1.32233 z" font-weight="400" letter-spacing="0" overflow="visible" word-spacing="0"/>
 </g>
</svg>
